www/assets/icons/desktop_windows.svg

<svg xmlns="http://www.w3.org/2000/svg" width="24" height="24" viewBox="0 0 24 24" fill='currentColor'><path d="M20 3H4c-1.1 0-2 .9-2 2v10c0 1.1.9 2 2 2h6v2H8v2h8v-2h-2v-2h6c1.1 0 2-.9 2-2V5c0-1.1-.9-2-2-2"/></svg>

<svg width="24" height="24" viewBox="0 0 24 24" xmlns="http://www.w3.org/2000/svg" fill='currentColor'><path d="M20 3H4C2.9 3 2 3.9 2 5V15C2 16.1 2.9 17 4 17H10V19H8V21H16V19H14V17H20C21.1 17 22 16.1 22 15V5C22 3.9 21.1 3 20 3Z"/></svg>
